packages/core/src/svgs/audio.svg

<svg width="24" height="24" viewBox="0 0 24 24" fill="none" xmlns="http://www.w3.org/2000/svg">
<g clip-path="url(#clip0_31_6349)">
<path d="M0 0H24V24H0V0Z" fill="#290F8B"/>
<mask id="mask0_31_6349" style="mask-type:luminance" maskUnits="userSpaceOnUse" x="0" y="0" width="24" height="24">
<path d="M12 24C18.6274 24 24 18.6274 24 12C24 5.37258 18.6274 0 12 0C5.37258 0 0 5.37258 0 12C0 18.6274 5.37258 24 12 24Z" fill="#C4C4C4"/>
</mask>
<g mask="url(#mask0_31_6349)">
<path d="M26.5714 17.357C26.1428 17.3999 22.5771 22.9841 16.7143 23.5713C11.13 24.1284 9.21425 20.7856 6.42854 16.0713C4.78282 13.2856 1.92854 13.2856 -2.35718 15.6427L2.35711 4.07129L12.2143 -3.42871C13.7143 -0.287283 27.8014 17.2327 26.5714 17.357Z" fill="#7E1BC6"/>
<path d="M16.7142 -2.78564C18.2142 0.355784 28.2299 16.8044 26.9999 16.9286C22.9971 17.3272 20.9999 22.0286 15.4713 21.4286C10.7871 20.9229 8.96134 15.4372 6.42848 11.1429C4.78277 8.35721 1.49991 9.00007 -2.14294 9.42864L4.07134 2.35721L16.7142 -2.78564Z" fill="#4912B2"/>
<path d="M25.2856 14.5711C22.9285 14.8069 21.6428 19.0711 17.3571 19.4997C11.4514 20.0911 10.0628 11.7169 7.49993 8.35686C5.98279 6.36829 3.85707 4.71401 -0.214355 4.71401L4.9285 0.428292L16.0714 -2.35742C17.5714 0.784006 26.5156 14.4469 25.2856 14.5711Z" fill="#7919C4"/>
<path d="M11.5714 10.5C9.85707 5.78571 6.4285 2.35714 4.28564 0.857143L19.2856 -1.5C20.7856 1.64143 27.3728 12.09 26.1428 12.2143C23.9999 12.4286 21.3085 17.67 17.9999 18C15.6985 18.2314 13.6156 16.1143 11.5714 10.5Z" fill="#BC28D9"/>
<path d="M13.7143 9.42829C12.5143 4.79972 10.0714 0.856864 8.57141 -0.857422L21.8571 -0.643136C23.3571 2.49829 26.5157 9.73258 25.2857 9.85686C22.1957 10.1654 20.2243 15.8483 18.2143 16.0711C17.0057 16.204 15.2143 15.214 13.7143 9.42829Z" fill="#D300D2"/>
</g>
<path d="M6.81431 13.7141C6.51431 13.7141 6.33002 13.4013 6.48431 13.1527L11.0272 5.75555C11.0628 5.69981 11.1119 5.65393 11.17 5.62216C11.228 5.59038 11.2931 5.57373 11.3593 5.57373C11.4255 5.57373 11.4906 5.59038 11.5486 5.62216C11.6067 5.65393 11.6558 5.69981 11.6914 5.75555L18.3772 16.5813C18.5272 16.8298 18.3429 17.1427 18.0386 17.1427H8.67002C8.37002 17.1427 8.18145 16.8255 8.33574 16.577L9.50145 14.7513C9.53683 14.6959 9.58564 14.6504 9.64333 14.6189C9.70102 14.5874 9.76573 14.571 9.83145 14.5713H13.0029C13.0702 14.5729 13.1367 14.5564 13.1953 14.5233C13.2539 14.4903 13.3025 14.442 13.3359 14.3835C13.3693 14.3251 13.3863 14.2587 13.385 14.1914C13.3837 14.1241 13.3642 14.0584 13.3286 14.0013L11.6786 11.3184C11.6449 11.2634 11.5976 11.2181 11.5413 11.1866C11.4851 11.1551 11.4216 11.1385 11.3572 11.1385C11.2927 11.1385 11.2293 11.1551 11.173 11.1866C11.1167 11.2181 11.0695 11.2634 11.0357 11.3184L9.67716 13.547C9.64029 13.6 9.59084 13.643 9.53324 13.6722C9.47564 13.7013 9.41171 13.7158 9.34716 13.7141H6.81859H6.81431Z" fill="white"/>
</g>
<defs>
<clipPath id="clip0_31_6349">
<rect width="24" height="24" fill="white"/>
</clipPath>
</defs>
</svg>

<svg xmlns="http://www.w3.org/2000/svg" width="24" height="24" fill="none" viewBox="0 0 24 24"><g clip-path="url(#a)"><path fill="#290F8B" d="M0 0h24v24H0z"/><mask id="b" width="24" height="24" x="0" y="0" maskUnits="userSpaceOnUse" style="mask-type:luminance"><path fill="#C4C4C4" d="M12 24c6.627 0 12-5.373 12-12S18.627 0 12 0 0 5.373 0 12s5.373 12 12 12"/></mask><g mask="url(#b)"><path fill="#7E1BC6" d="M26.571 17.357c-.428.043-3.994 5.627-9.857 6.214-5.584.557-7.5-2.785-10.285-7.5-1.646-2.785-4.5-2.785-8.786-.428L2.357 4.07l9.857-7.5c1.5 3.142 15.587 20.662 14.357 20.786"/><path fill="#4912B2" d="M16.714-2.786C18.214.356 28.23 16.804 27 16.93c-4.003.398-6 5.1-11.529 4.5-4.684-.506-6.51-5.992-9.043-10.286C4.783 8.357 1.5 9-2.142 9.429L4.07 2.357z"/><path fill="#7919C4" d="M25.286 14.571c-2.358.236-3.643 4.5-7.929 4.929-5.906.591-7.294-7.783-9.857-11.143C5.983 6.368 3.857 4.714-.214 4.714L4.929.428 16.07-2.357c1.5 3.141 10.445 16.804 9.215 16.928"/><path fill="#BC28D9" d="M11.571 10.5C9.857 5.786 6.43 2.357 4.286.857l15-2.357c1.5 3.141 8.087 13.59 6.857 13.714C24 12.43 21.308 17.67 18 18c-2.302.231-4.384-1.886-6.429-7.5"/><path fill="#D300D2" d="M13.714 9.428C12.514 4.8 10.071.857 8.571-.857l13.286.214c1.5 3.141 4.659 10.376 3.429 10.5-3.09.308-5.062 5.991-7.072 6.214-1.208.133-3-.857-4.5-6.643"/></g><path fill="#fff" d="M6.814 13.714c-.3 0-.484-.313-.33-.561l4.543-7.397a.393.393 0 0 1 .664 0l6.686 10.825c.15.249-.034.562-.338.562H8.67c-.3 0-.489-.317-.334-.566L9.5 14.751a.39.39 0 0 1 .33-.18h3.172a.373.373 0 0 0 .326-.57l-1.65-2.683a.376.376 0 0 0-.643 0l-1.359 2.229a.39.39 0 0 1-.33.167H6.814"/></g><defs><clipPath id="a"><path fill="#fff" d="M0 0h24v24H0z"/></clipPath></defs></svg>
